packages/dnb-eufemia/assets/icons/account_out_medium.svg

<svg width="24" height="24" viewBox="0 0 24 24" fill="none" xmlns="http://www.w3.org/2000/svg">
<path d="M14.6222 9.75L15.0708 9.14895C14.9412 9.05225 14.7839 9 14.6222 9V9.75ZM8.62781 9.75V9C8.46613 9 8.30878 9.05225 8.17922 9.14895L8.62781 9.75ZM11.625 23.25V24V23.25ZM8.25 6.75C7.83579 6.75 7.5 7.08579 7.5 7.5C7.5 7.91421 7.83579 8.25 8.25 8.25V6.75ZM15 8.25C15.4142 8.25 15.75 7.91421 15.75 7.5C15.75 7.08579 15.4142 6.75 15 6.75V8.25ZM16.5 0.75L16.9965 1.31217C17.2473 1.09066 17.321 0.729789 17.1772 0.427645C17.0334 0.125501 16.7068 -0.0448082 16.3767 0.0102046L16.5 0.75ZM7.5 2.25L7.3767 1.5102C7.06113 1.5628 6.81366 1.80979 6.76045 2.12526C6.70724 2.44073 6.86 2.75522 7.14086 2.90842L7.5 2.25ZM9 5.25H8.25C8.25 5.66421 8.58579 6 9 6V5.25ZM13.875 5.25V6C14.2892 6 14.625 5.66421 14.625 5.25H13.875ZM16.4415 12.4184C16.718 12.7268 17.1922 12.7527 17.5006 12.4762C17.809 12.1998 17.835 11.7256 17.5585 11.4172L16.4415 12.4184ZM18.5133 22.0779C18.8153 21.7945 18.8303 21.3198 18.5469 21.0178C18.2634 20.7158 17.7887 20.7008 17.4867 20.9842L18.5133 22.0779ZM15.5 15.75C15.0858 15.75 14.75 16.0858 14.75 16.5C14.75 16.9142 15.0858 17.25 15.5 17.25V15.75ZM19.9697 18.4697C19.6768 18.7626 19.6768 19.2374 19.9697 19.5303C20.2626 19.8232 20.7374 19.8232 21.0303 19.5303L19.9697 18.4697ZM23 16.5L23.5303 17.0303C23.8232 16.7374 23.8232 16.2626 23.5303 15.9697L23 16.5ZM21.0303 13.4697C20.7374 13.1768 20.2626 13.1768 19.9697 13.4697C19.6768 13.7626 19.6768 14.2374 19.9697 14.5303L21.0303 13.4697ZM14.6222 9H8.62781V10.5H14.6222V9ZM8.17922 9.14895C6.94386 10.071 5.66508 11.2923 4.68835 12.6677C3.7173 14.0352 3 15.6193 3 17.25H4.5C4.5 16.0498 5.03621 14.7686 5.91136 13.5362C6.78085 12.3117 7.94097 11.1985 9.07641 10.3511L8.17922 9.14895ZM3 17.25C3 19.3268 3.51862 21.0894 4.98725 22.2981C6.41781 23.4755 8.60326 24 11.625 24V22.5C8.71705 22.5 6.965 21.9832 5.94048 21.14C4.95403 20.3281 4.5 19.0907 4.5 17.25H3ZM8.25 8.25H15V6.75H8.25V8.25ZM16.3767 0.0102046L7.3767 1.5102L7.6233 2.9898L16.6233 1.4898L16.3767 0.0102046ZM7.5 2.25C7.14086 2.90842 7.14051 2.90823 7.14016 2.90804C7.14005 2.90798 7.1397 2.90779 7.13948 2.90767C7.13905 2.90743 7.13863 2.9072 7.13824 2.90698C7.13745 2.90655 7.13675 2.90616 7.13613 2.90582C7.1349 2.90513 7.134 2.90462 7.13343 2.9043C7.1323 2.90365 7.13247 2.90374 7.13385 2.90456C7.13663 2.90621 7.14424 2.9108 7.156 2.91844C7.17959 2.93375 7.21941 2.96102 7.27022 3.00105C7.37226 3.08144 7.51536 3.21077 7.66026 3.39518C7.94383 3.75609 8.25 4.34615 8.25 5.25H9.75C9.75 3.97203 9.30617 3.0621 8.83974 2.46845C8.60964 2.1756 8.37774 1.96401 8.19853 1.82281C8.10871 1.75205 8.03135 1.69835 7.97291 1.6604C7.94365 1.6414 7.91903 1.62628 7.89984 1.61488C7.89024 1.60918 7.88198 1.6044 7.87517 1.60053C7.87176 1.59859 7.86872 1.59688 7.86604 1.59539C7.8647 1.59464 7.86346 1.59395 7.86231 1.59332C7.86173 1.593 7.86118 1.5927 7.86065 1.59241C7.86039 1.59226 7.86001 1.59205 7.85988 1.59198C7.85951 1.59178 7.85914 1.59158 7.5 2.25ZM9 6H13.875V4.5H9V6ZM14.625 5.25C14.625 4.42245 15.1436 3.46821 15.7817 2.63939C16.0873 2.2426 16.3945 1.90722 16.6258 1.67093C16.741 1.55322 16.8363 1.46122 16.9016 1.39966C16.9342 1.36891 16.9593 1.34584 16.9755 1.33104C16.9837 1.32365 16.9896 1.31832 16.9931 1.31515C16.9949 1.31357 16.9961 1.31252 16.9966 1.31202C16.9969 1.31177 16.997 1.31165 16.997 1.31168C16.997 1.31169 16.9969 1.31174 16.9969 1.31182C16.9968 1.31186 16.9967 1.31194 16.9967 1.31196C16.9966 1.31206 16.9965 1.31217 16.5 0.75C16.0035 0.187835 16.0034 0.187957 16.0033 0.188088C16.0032 0.188144 16.003 0.188284 16.0029 0.188395C16.0027 0.188618 16.0024 0.188876 16.002 0.18917C16.0014 0.189758 16.0005 0.190489 15.9996 0.191361C15.9976 0.193105 15.995 0.195415 15.9918 0.198282C15.9854 0.204014 15.9766 0.211975 15.9655 0.22209C15.9433 0.242315 15.912 0.271179 15.8728 0.308078C15.7946 0.381824 15.6847 0.487972 15.5539 0.621685C15.293 0.888234 14.944 1.26876 14.5933 1.72425C13.9189 2.59997 13.125 3.89573 13.125 5.25H14.625ZM17.5585 11.4172C16.7848 10.554 15.9193 9.78224 15.0708 9.14895L14.1736 10.3511C14.9491 10.9299 15.7397 11.6354 16.4415 12.4184L17.5585 11.4172ZM11.625 24C14.8259 24 17.0928 23.4112 18.5133 22.0779L17.4867 20.9842C16.4916 21.9183 14.7111 22.5 11.625 22.5V24ZM21.0303 19.5303L23.5303 17.0303L22.4697 15.9697L19.9697 18.4697L21.0303 19.5303ZM23.5303 15.9697L21.0303 13.4697L19.9697 14.5303L22.4697 17.0303L23.5303 15.9697ZM15.5 17.25H23V15.75H15.5V17.25Z" fill="black"/>
<path d="M10.799 19.5H12.374L10.43 16.989L12.239 15H10.628L9.314 16.638V13.2H8V19.5H9.314V18.213L9.638 17.853L10.799 19.5Z" fill="black"/>
<path d="M12.957 19.5H14.271V18.9609C13.2879 18.5297 12.9854 17.8385 12.957 17.5469V19.5Z" fill="black"/>
</svg>

<svg width="24" height="24" viewBox="0 0 24 24" fill="none" xmlns="http://www.w3.org/2000/svg"><path d="m14.622 9.75.449-.601A.75.75 0 0 0 14.622 9v.75Zm-5.994 0V9a.75.75 0 0 0-.449.149l.449.601Zm2.997 13.5V24v-.75ZM8.25 6.75a.75.75 0 0 0 0 1.5v-1.5ZM15 8.25a.75.75 0 0 0 0-1.5v1.5Zm1.5-7.5.497.562a.75.75 0 0 0-.62-1.302l.123.74Zm-9 1.5-.123-.74a.75.75 0 0 0-.236 1.398L7.5 2.25Zm1.5 3h-.75c0 .414.336.75.75.75v-.75Zm4.875 0V6a.75.75 0 0 0 .75-.75h-.75Zm2.567 7.168a.75.75 0 0 0 1.116-1l-1.116 1Zm2.071 9.66a.75.75 0 0 0-1.026-1.094l1.026 1.094ZM15.5 15.75a.75.75 0 0 0 0 1.5v-1.5Zm4.47 2.72a.75.75 0 1 0 1.06 1.06l-1.06-1.06ZM23 16.5l.53.53a.75.75 0 0 0 0-1.06l-.53.53Zm-1.97-3.03a.75.75 0 1 0-1.06 1.06l1.06-1.06ZM14.622 9H8.628v1.5h5.994V9Zm-6.443.149c-1.235.922-2.514 2.143-3.49 3.519C3.716 14.035 3 15.619 3 17.25h1.5c0-1.2.536-2.481 1.411-3.714.87-1.224 2.03-2.338 3.165-3.185L8.18 9.15ZM3 17.25c0 2.077.519 3.84 1.987 5.048C6.417 23.476 8.603 24 11.624 24v-1.5c-2.908 0-4.66-.517-5.685-1.36-.986-.812-1.44-2.05-1.44-3.89H3Zm5.25-9H15v-1.5H8.25v1.5ZM16.377.01l-9 1.5.246 1.48 9-1.5-.246-1.48ZM7.5 2.25l-.36.658-.002-.001-.002-.001-.003-.002A1.564 1.564 0 0 1 7.27 3c.103.081.246.21.391.395.284.361.59.951.59 1.855h1.5c0-1.278-.444-2.188-.91-2.782a3.86 3.86 0 0 0-.641-.645 3.062 3.062 0 0 0-.337-.23h-.001l-.001-.001-.36.658ZM9 6h4.875V4.5H9V6Zm5.625-.75c0-.828.519-1.782 1.157-2.61a11.026 11.026 0 0 1 1.211-1.325l.004-.003L16.5.75a171.156 171.156 0 0 0-.498-.56H16a.82.82 0 0 0-.034.031l-.093.086a12.513 12.513 0 0 0-1.28 1.416c-.674.876-1.468 2.172-1.468 3.526h1.5Zm2.933 6.167a17.183 17.183 0 0 0-2.487-2.268l-.897 1.202a15.683 15.683 0 0 1 2.268 2.067l1.116-1ZM11.624 24c3.2 0 5.468-.589 6.888-1.922l-1.026-1.094c-.995.934-2.776 1.516-5.862 1.516V24Zm9.405-4.47 2.5-2.5-1.06-1.06-2.5 2.5 1.06 1.06Zm2.5-3.56-2.5-2.5-1.06 1.06 2.5 2.5 1.06-1.06Zm-8.03 1.28H23v-1.5h-7.5v1.5Zm-4.701 2.25h1.575l-1.944-2.511L12.239 15h-1.611l-1.314 1.638V13.2H8v6.3h1.314v-1.287l.324-.36 1.161 1.647Zm2.158 0h1.314v-.54c-.983-.43-1.286-1.122-1.314-1.413V19.5Z" fill="#000"/></svg>
